assets/Collision/Flat/collision_flat.svg

<svg width="32" height="32" viewBox="0 0 32 32" fill="none" xmlns="http://www.w3.org/2000/svg">
<path d="M9.40002 11.2363L6.02529 2.3412C5.93692 2.10827 6.20637 1.90353 6.4071 2.05108L14.3061 7.85727C14.4144 7.93685 14.5662 7.91663 14.6498 7.81147L17.6128 4.0867C17.753 3.9104 18.0366 3.99496 18.0574 4.21928L18.4733 8.71155C18.4874 8.86346 18.633 8.96746 18.7813 8.93142L26.7503 6.9943C26.9904 6.93593 27.1606 7.2242 26.9935 7.40627L22.0661 12.7753C21.9595 12.8915 21.9858 13.0762 22.1206 13.1581L29.4648 17.6144C29.6696 17.7386 29.5993 18.052 29.361 18.0768L20.8056 18.968C20.6479 18.9844 20.5451 19.1415 20.5933 19.2925L21.9908 23.6792C22.0649 23.9116 21.7963 24.1016 21.6017 23.9544L17.7589 21.0459C17.6281 20.9469 17.439 20.9986 17.3768 21.1503L13.8064 29.8531C13.7131 30.0805 13.3822 30.0509 13.3306 29.8107L11.0537 19.2002C11.0243 19.0629 10.8875 18.9768 10.751 19.0095L3.3184 20.7916C3.07254 20.8505 2.90455 20.549 3.08407 20.371L8.22857 15.269C8.35659 15.142 8.31221 14.9254 8.14458 14.859L4.17547 13.2871C3.94933 13.1976 3.97128 12.8706 4.20736 12.812L9.22644 11.5676C9.37194 11.5316 9.4532 11.3764 9.40002 11.2363Z" fill="#F8312F"/>
<path d="M12.2759 15.2263L11.0751 16.4392C10.9034 16.6127 11.0564 16.9041 11.2967 16.8612L13.3516 16.4943C13.4884 16.4698 13.6189 16.5617 13.642 16.6988L14.3329 20.7906C14.3776 21.0551 14.745 21.0869 14.8344 20.8339L16.1301 17.1691C16.1882 17.0048 16.3923 16.9489 16.5261 17.0606L17.5897 17.9489C17.7525 18.0848 18 17.969 18 17.757V16.2712C18 16.1251 18.1248 16.0101 18.2704 16.0221L22.7816 16.3918C23.0102 16.4106 23.0853 16.0924 22.8724 16.0069L18.1597 14.1142C18.0127 14.0552 17.957 13.8762 18.0444 13.7442L18.9328 12.4033C19.0449 12.2341 18.9193 12.0089 18.7164 12.0154L17.2414 12.0623C17.1068 12.0666 16.9929 11.9634 16.984 11.829L16.8068 9.15659C16.7903 8.90701 16.458 8.83373 16.338 9.05318L15.1413 11.2416C15.0672 11.3769 14.8895 11.4136 14.768 11.3187L12.4191 9.48361C12.2271 9.33355 11.9557 9.519 12.0258 9.75245L12.9185 12.7281C12.9617 12.8723 12.8686 13.0218 12.7201 13.0466L10.6698 13.3883C10.4404 13.4265 10.3829 13.7296 10.5822 13.8493L12.2268 14.836C12.3659 14.9194 12.3899 15.1111 12.2759 15.2263Z" fill="#FCD53F"/>
</svg>

<svg xmlns="http://www.w3.org/2000/svg" width="32" height="32" fill="none"><path fill="#F8312F" d="M9.4 11.236 6.025 2.341c-.088-.233.181-.437.382-.29l7.9 5.806c.107.08.26.06.343-.046l2.963-3.724a.25.25 0 0 1 .444.132l.416 4.493a.25.25 0 0 0 .308.22l7.97-1.938a.25.25 0 0 1 .242.412l-4.927 5.37a.25.25 0 0 0 .055.382l7.344 4.456a.25.25 0 0 1-.104.463l-8.555.891a.25.25 0 0 0-.213.325l1.398 4.386a.25.25 0 0 1-.39.275l-3.842-2.908a.25.25 0 0 0-.382.104l-3.57 8.703a.25.25 0 0 1-.476-.042L11.054 19.2a.25.25 0 0 0-.303-.192l-7.433 1.783c-.245.058-.413-.243-.234-.421l5.145-5.102a.25.25 0 0 0-.084-.41l-3.97-1.572a.25.25 0 0 1 .032-.475l5.02-1.244a.25.25 0 0 0 .173-.332Z"/><path fill="#FCD53F" d="m12.276 15.226-1.2 1.213a.25.25 0 0 0 .22.422l2.056-.367a.25.25 0 0 1 .29.205l.69 4.092c.046.264.413.296.502.043l1.296-3.665a.25.25 0 0 1 .396-.108l1.064.888a.25.25 0 0 0 .41-.192v-1.486a.25.25 0 0 1 .27-.249l4.512.37c.228.019.303-.3.09-.385l-4.712-1.893a.25.25 0 0 1-.116-.37l.889-1.34a.25.25 0 0 0-.217-.389l-1.475.047a.25.25 0 0 1-.257-.233l-.177-2.672c-.017-.25-.349-.323-.469-.104l-1.197 2.189a.25.25 0 0 1-.373.077l-2.349-1.835a.25.25 0 0 0-.393.268l.893 2.976a.25.25 0 0 1-.199.319l-2.05.341a.25.25 0 0 0-.088.461l1.645.987a.25.25 0 0 1 .049.39Z"/></svg>
